X:1
T:Title
%%score ( 1 2 ) 3
L:1/8
Q:1/4=75
M:4/8
K:D
V:1 treble nm="Grand Piano, Soprano"
V:2 treble 
V:3 bass nm="Choir Pad, Chișinău, M. F. Varney 1878"
V:1
 [DF]/[EG]/[FA][FA][FA] | [Fd]c/B/[FA]/[EG]/[DF] | [DF]E[DF][CG] | [DF][DF][DE][CE] | %4
w: By~M.~F.~Varney,~1878 * * * *||||
 [DF]/[EG]/[FA][FA][FA] | [Fd]c/B/[FA]/[EG]/[DF] | z2 z .A | D/E/[DF][CE]D- | D3 z |] %9
w: |||||
V:2
 x4 | z G z2 | x4 | x4 | x4 | z G z2 | [DF][DE][DB]D/-[DF]/ | x4 | x4 |] %9
V:3
 [D,A,][D,D][D,D][D,D] | [D,A,][A,,A,][A,,A,][D,A,] | [D,A,][C,A,][D,A,][E,A,] | %3
 [D,A,][E,^G,][E,G,][A,,A,] | [D,A,][D,D][D,D][D,D] | [D,A,][A,,A,][A,,A,][D,A,] | %6
 [D,A,][G,B,][G,B,][F,D] | [G,B,]A,[A,,G,][D,F,]- | [D,F,]3 z |] %9

